X:40
T: Where is the Cat
Z: B.Black
R: slide
M: 12/8
L: 1/8
K: G
DED G2 D E2 D G3 | DED G2 B ABA E2 D |
DED G2 D E2 D G2 d | BdB c2 B ABG E2 D :|
BAB d2 B AGE c2 c | BAB d2 B ABG E2 D |
BAB d2 B AGE c2 c | ege d2 B ABG E2 D :|
